X: 1
T: Our Guiding Star
T: - a tribute to David Kaynor
O: arr. Peter Macfarlane
C: Robin Russell & Cynthia Thomas
R: air
S: https://natunelist.net/our-guiding-star/
Z: 2021 John Chambers <jc:trillian.mit.edu>
M: C
L: 1/8
K: D
|:\
"D"F2FE D3D | "D"DE"G"GA "A"G2FE | "D"F2FE "Bm"D3A, | "G"B,DDF "A"G2FE |
"D"F2FE D2FD | "Bm7"FDFA "G"A2G2 | "D"FAAF "Em"GFED | "G"B,DDC [1 "D"D4 :|[2 "D"D2FG ||
[|\
"D"A2A2 BA2A | "G"B2BA "A"E2FG | "D"A2A2 "Bm"BAFD | "G"G2F2 "A"E2FG |
"F#m"A2A2 "Bm"FD2D | "Em"G2GA "G"B2AG | "D"A2F2 D2"G"G2 | "A"F3E "D"D2"A7"FG ||
||\
"D"A2A2 "Bm"FD2A | "Em"B2BG "A"E2FG | "D"A2FD "Bm"D2F2 | "Em"GFDF "A"E2FG |
"F#m"A2F2 "Bm"D2EF | "G"GFGB "A"BAAG | "D"F2AF "Em"GFED |"G"B,2D2 "D"D4 |]
